X: 1
T: Zannabul    [Am]
R: hanterdro
S: Handout at 2014 NEFFA
Z: 2015 John Chambers <jc:trillian.mit.edu>
M: 3/4
L: 1/16
K: Am
|:\
"Am"ABcd eAef "G"g4 | "F"fedc "Dm"d3f "Em"edcB |\
"Am"ABcd eAef "G"g4 | "F"fedc "Dm"d2f2 "Em"e4 :|
|:\
"Am"e2fe "Dm"d2c2 "G"B3c | "Dm"d2ed "F"c2Ac "Em"B4 |\
"Am"e2fe "Dm"d2c2 "G"B3c | "Dm"d2ed "F"c2"Em"B2 "Am"A4 :|
|:\
"C"gceg "Dm"fedc d4 | fedc "G"Bcdf "C"e2c2 |\
"C"gceg "Dm"fedc d4 | fedc "G"B2c2 "Am"A4 :|
|:\
"Am"[e2c2][ec][ec] "F"[f2d2][e2c2] "G"[d2B2][cA][dB] |\
"Am"[e2c2][ec][ec] "F"[f2d2][e2c2] "G"[d4B4] :|\
y4 y4 y4 y4 y4 y4 y4 y4 y4 y4 % y4 y4 
